X:200
T:Reel 200
M:4/4
K:Dmaj
L:1/8
FG|ADDF EDCE|ABcA BGEG|FDFA GECE|Addc d2ed|AD (3DCD EFGE|AGFD DEFDEG|AdBG FDEC|A,DDC D2|AB|cBAB cdec|dAAB cAGE|AGAB cded|cAGE D2AG| (3ABA Ac dced|cAAB cABc|Aded fded|cAGE D2|
